svg/aws-ec2-p4d.svg

<?xml version="1.0" encoding="UTF-8"?>
<svg xmlns="http://www.w3.org/2000/svg" xmlns:xlink="http://www.w3.org/1999/xlink" width="32" height="32" viewBox="0 0 32 32">
<path fill-rule="evenodd" fill="rgb(83.137255%, 35.686275%, 2.745098%)" fill-opacity="1" d="M 6 26 L 26 26 L 26 6 L 6 6 Z M 30.667969 8.667969 L 30.667969 7.332031 L 27.332031 7.332031 L 27.332031 5.332031 C 27.332031 4.964844 27.035156 4.667969 26.667969 4.667969 L 24.667969 4.667969 L 24.667969 1.332031 L 23.332031 1.332031 L 23.332031 4.667969 L 20.667969 4.667969 L 20.667969 1.332031 L 19.332031 1.332031 L 19.332031 4.667969 L 16.667969 4.667969 L 16.667969 1.332031 L 15.332031 1.332031 L 15.332031 4.667969 L 12.667969 4.667969 L 12.667969 1.332031 L 11.332031 1.332031 L 11.332031 4.667969 L 8.667969 4.667969 L 8.667969 1.332031 L 7.332031 1.332031 L 7.332031 4.667969 L 5.332031 4.667969 C 4.964844 4.667969 4.667969 4.964844 4.667969 5.332031 L 4.667969 7.332031 L 1.332031 7.332031 L 1.332031 8.667969 L 4.667969 8.667969 L 4.667969 11.332031 L 1.332031 11.332031 L 1.332031 12.667969 L 4.667969 12.667969 L 4.667969 15.332031 L 1.332031 15.332031 L 1.332031 16.667969 L 4.667969 16.667969 L 4.667969 19.332031 L 1.332031 19.332031 L 1.332031 20.667969 L 4.667969 20.667969 L 4.667969 23.332031 L 1.332031 23.332031 L 1.332031 24.667969 L 4.667969 24.667969 L 4.667969 26.667969 C 4.667969 27.035156 4.964844 27.332031 5.332031 27.332031 L 7.332031 27.332031 L 7.332031 30.667969 L 8.667969 30.667969 L 8.667969 27.332031 L 11.332031 27.332031 L 11.332031 30.667969 L 12.667969 30.667969 L 12.667969 27.332031 L 15.332031 27.332031 L 15.332031 30.667969 L 16.667969 30.667969 L 16.667969 27.332031 L 19.332031 27.332031 L 19.332031 30.667969 L 20.667969 30.667969 L 20.667969 27.332031 L 23.332031 27.332031 L 23.332031 30.667969 L 24.667969 30.667969 L 24.667969 27.332031 L 26.667969 27.332031 C 27.035156 27.332031 27.332031 27.035156 27.332031 26.667969 L 27.332031 24.667969 L 30.667969 24.667969 L 30.667969 23.332031 L 27.332031 23.332031 L 27.332031 20.667969 L 30.667969 20.667969 L 30.667969 19.332031 L 27.332031 19.332031 L 27.332031 16.667969 L 30.667969 16.667969 L 30.667969 15.332031 L 27.332031 15.332031 L 27.332031 12.667969 L 30.667969 12.667969 L 30.667969 11.332031 L 27.332031 11.332031 L 27.332031 8.667969 Z M 20.375 15.527344 C 20.570312 15.261719 20.878906 15.128906 21.296875 15.128906 C 21.679688 15.128906 22.03125 15.242188 22.351562 15.464844 L 22.351562 18.03125 C 22 18.269531 21.644531 18.386719 21.277344 18.386719 C 20.480469 18.386719 20.082031 17.839844 20.082031 16.746094 C 20.082031 16.199219 20.179688 15.792969 20.375 15.527344 M 20.929688 19.253906 C 21.472656 19.257812 21.996094 19.058594 22.398438 18.695312 L 22.507812 19.152344 L 23.453125 19.152344 L 23.453125 12.246094 L 22.351562 12.246094 L 22.351562 14.746094 C 21.964844 14.433594 21.484375 14.261719 20.988281 14.261719 C 20.570312 14.261719 20.210938 14.371094 19.90625 14.585938 C 19.589844 14.808594 19.347656 15.117188 19.203125 15.476562 C 19.042969 15.855469 18.960938 16.292969 18.960938 16.792969 C 18.960938 17.542969 19.140625 18.144531 19.5 18.589844 C 19.855469 19.03125 20.335938 19.253906 20.929688 19.253906 M 14.613281 16.929688 L 16.5625 14.085938 L 16.5625 16.929688 Z M 16.5625 19.152344 L 17.675781 19.152344 L 17.675781 17.808594 L 18.542969 17.808594 L 18.542969 16.929688 L 17.675781 16.929688 L 17.675781 12.683594 L 16.515625 12.683594 L 13.503906 16.976562 L 13.503906 17.808594 L 16.5625 17.808594 Z M 9.683594 13.5625 L 10.828125 13.5625 C 11.175781 13.5625 11.441406 13.660156 11.621094 13.851562 C 11.796875 14.042969 11.886719 14.324219 11.886719 14.699219 C 11.886719 15.074219 11.796875 15.355469 11.621094 15.550781 C 11.441406 15.742188 11.175781 15.839844 10.828125 15.839844 L 9.683594 15.839844 Z M 9.683594 16.714844 L 10.960938 16.714844 C 11.605469 16.714844 12.113281 16.535156 12.484375 16.175781 C 12.855469 15.816406 13.042969 15.324219 13.042969 14.699219 C 13.042969 14.078125 12.855469 13.585938 12.480469 13.226562 C 12.105469 12.863281 11.59375 12.683594 10.945312 12.683594 L 8.546875 12.683594 L 8.546875 19.152344 L 9.683594 19.152344 Z M 9.683594 16.714844 "/>
</svg>

<svg role="img" viewBox="0 0 32 32" xmlns="http://www.w3.org/2000/svg"><path d="M6 26h20V6H6ZM30.668 8.668V7.332h-3.336v-2a.664.664 0 0 0-.664-.664h-2V1.332h-1.336v3.336h-2.664V1.332h-1.336v3.336h-2.664V1.332h-1.336v3.336h-2.664V1.332h-1.336v3.336H8.668V1.332H7.332v3.336h-2a.664.664 0 0 0-.664.664v2H1.332v1.336h3.336v2.664H1.332v1.336h3.336v2.664H1.332v1.336h3.336v2.664H1.332v1.336h3.336v2.664H1.332v1.336h3.336v2c0 .367.297.664.664.664h2v3.336h1.336v-3.336h2.664v3.336h1.336v-3.336h2.664v3.336h1.336v-3.336h2.664v3.336h1.336v-3.336h2.664v3.336h1.336v-3.336h2a.664.664 0 0 0 .664-.664v-2h3.336v-1.336h-3.336v-2.664h3.336v-1.336h-3.336v-2.664h3.336v-1.336h-3.336v-2.664h3.336v-1.336h-3.336V8.668Zm-10.293 6.86q.294-.4.922-.4.574.001 1.055.337v2.566c-.352.239-.707.356-1.075.356q-1.195 0-1.195-1.64 0-.822.293-1.22m.555 3.726q.83.002 1.468-.559l.11.457h.945v-6.906h-1.101v2.5a2.18 2.18 0 0 0-1.364-.484q-.626.002-1.082.324a2.04 2.04 0 0 0-.703.89q-.241.569-.242 1.317c0 .75.18 1.352.539 1.797.355.441.836.664 1.43.664m-6.317-2.324 1.95-2.844v2.844Zm1.95 2.222h1.113V17.81h.867v-.88h-.867v-4.245h-1.16l-3.012 4.293v.832h3.059Zm-6.88-5.59h1.145q.523.001.793.29.265.289.266.847c0 .375-.09.656-.266.852q-.27.288-.793.289H9.684Zm0 3.153h1.278q.966 0 1.523-.54.56-.538.559-1.476 0-.932-.563-1.472-.562-.542-1.535-.543H8.547v6.468h1.137Zm0 0" fill="rgb(83.137256%, 35.686275%, 2.745098%)" fill-rule="evenodd"/></svg>
